X: 188
M: 6/8
L: 1/8
K: C
(AB) c (de) f | (GAB Hc2) E | (F>E) F G2 G | C3- C E C |
(AB) c (de) f | (GAB Hc2) E | (F>E) F G2 G | C3- C2 |]


